public/assets/landing_6_divider_mobile.svg

<svg width="343" height="18" viewBox="0 0 343 18" fill="none" xmlns="http://www.w3.org/2000/svg">
<path d="M117.025 11.8633V12.6367H107.486V11.8633H111.787V9.47266H112.689V11.8633H117.025ZM116.111 5.19531V5.95703H112.713C112.719 7.5918 114.453 8.79297 116.451 9.12109L116.1 9.84766C114.43 9.54883 112.9 8.71094 112.244 7.41016C111.582 8.71094 110.053 9.54883 108.377 9.84766L108.014 9.12109C110.023 8.79297 111.77 7.5918 111.775 5.95703H108.377V5.19531H111.787V3.75391H112.689V5.19531H116.111ZM126.471 3.53125V13.9492H125.545V3.53125H126.471ZM123.389 4.66797C123.377 7.66797 121.982 10.3164 118.49 11.9922L117.986 11.2422C120.805 9.90625 122.24 7.9082 122.451 5.41797H118.467V4.66797H123.389ZM134.732 6.33203C134.732 8.17188 135.951 10.0586 137.428 10.7852L136.865 11.5234C135.717 10.9199 134.756 9.68945 134.299 8.24219C133.83 9.7832 132.846 11.0957 131.674 11.7227L131.088 10.9844C132.611 10.2344 133.818 8.23047 133.83 6.33203V4.43359H134.732V6.33203ZM139.303 3.53125V7.76172H141.049V8.55859H139.303V13.9492H138.389V3.53125H139.303ZM151.104 8.6875V9.44922H141.611V8.6875H143.967V7.22266C143.135 6.90039 142.666 6.36719 142.666 5.66406C142.666 4.43359 144.072 3.73047 146.357 3.73047C148.619 3.73047 150.037 4.43359 150.037 5.66406C150.037 6.36133 149.574 6.89453 148.748 7.21094V8.6875H151.104ZM146.357 10.2461C148.596 10.2461 149.932 10.8906 149.943 12.0859C149.932 13.2695 148.596 13.9258 146.357 13.9258C144.096 13.9258 142.76 13.2695 142.76 12.0859C142.76 10.8906 144.096 10.2461 146.357 10.2461ZM146.357 10.9492C144.682 10.9609 143.686 11.3711 143.697 12.0859C143.686 12.7891 144.682 13.2109 146.357 13.2109C148.01 13.2109 149.018 12.7891 149.018 12.0859C149.018 11.3711 148.01 10.9609 146.357 10.9492ZM146.357 4.45703C144.658 4.45703 143.604 4.91406 143.615 5.66406C143.604 6.42578 144.658 6.87109 146.357 6.87109C148.045 6.87109 149.1 6.42578 149.1 5.66406C149.1 4.91406 148.045 4.45703 146.357 4.45703ZM144.881 8.6875H147.834V7.46875C147.395 7.54492 146.902 7.58594 146.357 7.58594C145.812 7.58594 145.32 7.54492 144.881 7.46875V8.6875ZM155.51 6.73047C155.498 8.40625 156.705 10.2461 158.217 10.9609L157.689 11.6875C156.518 11.1191 155.527 9.87695 155.064 8.46484C154.584 10 153.535 11.3477 152.369 11.9453L151.807 11.2188C153.307 10.4922 154.596 8.51172 154.607 6.73047V5.37109H152.182V4.60938H157.854V5.37109H155.51V6.73047ZM160.045 3.53125V7.75H161.791V8.53516H160.045V13.9492H159.131V3.53125H160.045ZM170.416 3.53125V7.77344H172.104V8.54688H170.416V13.9492H169.502V3.53125H170.416ZM167.721 4.65625C167.721 7.60938 166.338 10.293 162.939 11.9688L162.424 11.2422C165.119 9.90039 166.584 7.89648 166.795 5.42969H162.904V4.65625H167.721ZM181.947 8.03125V8.79297H179.662V10.8438C180.682 10.8027 181.707 10.7324 182.674 10.6211L182.744 11.3125C180.436 11.6523 177.916 11.6875 175.924 11.6875L175.795 10.9141C176.703 10.9141 177.711 10.9082 178.748 10.8789V8.79297H176.592V4.52734H181.9V5.27734H177.494V8.03125H181.947ZM184.279 3.53125V13.9727H183.365V3.53125H184.279ZM194.463 4.58594V5.62891C194.451 6.90625 194.451 8.33594 194.076 10.4336L193.139 10.3281C193.537 8.33594 193.537 6.87109 193.537 5.62891V5.34766H187.115V4.58594H194.463ZM195.6 11.7109V12.4727H186.107V11.7109H189.834V7.98438H190.736V11.7109H195.6ZM208.092 3.54297V9.33203H207.178V3.54297H208.092ZM203.182 4.94922C203.17 6.39062 204.295 7.69141 205.842 8.19531L205.396 8.92188C204.166 8.50586 203.193 7.63867 202.725 6.50781C202.256 7.7207 201.271 8.66992 200.029 9.10938L199.561 8.38281C201.131 7.83203 202.244 6.46094 202.244 4.94922V3.92969H203.182V4.94922ZM208.162 9.95312V10.7031H206.721V13.0586H208.268V13.8086H201.061V13.0586H202.619V10.7031H201.154V9.95312H208.162ZM203.521 13.0586H205.807V10.7031H203.521V13.0586ZM217.924 3.53125V7.65625H219.67V8.42969H217.924V13.9727H217.01V3.53125H217.924ZM215.182 4.55078V5.3125H211.232V10.5859C213.119 10.5859 214.455 10.498 216.002 10.2109L216.119 11.0078C214.49 11.3008 213.119 11.3594 211.139 11.3594H210.318V4.55078H215.182ZM225.506 4.44531V5.37109H227.943V3.54297H228.869V11.1484H227.943V8.37109H225.506V9.30859H220.725V4.44531H225.506ZM221.639 5.20703V8.57031H224.604V5.20703H221.639ZM229.104 12.9531V13.7266H222.131V10.4688H223.057V12.9531H229.104ZM225.506 7.60938H227.943V6.14453H225.506V7.60938ZM232.268 10.5508C232.279 8.98047 232.76 8.5 233.568 8.00781C234.049 7.71484 234.424 7.24609 234.424 6.58984C234.424 5.79297 233.803 5.28906 233.029 5.28906C232.361 5.28906 231.693 5.6875 231.623 6.64844H230.557C230.615 5.23047 231.693 4.39844 233.029 4.39844C234.494 4.39844 235.455 5.34766 235.455 6.63672C235.455 7.55078 235.021 8.19531 234.295 8.64062C233.568 9.08594 233.299 9.53125 233.275 10.5508V10.6094H232.268V10.5508ZM232.807 13.0703C232.396 13.0703 232.045 12.7305 232.057 12.3086C232.045 11.8984 232.396 11.5586 232.807 11.5586C233.217 11.5586 233.557 11.8984 233.557 12.3086C233.557 12.7305 233.217 13.0703 232.807 13.0703Z" fill="#6B6B6B"/>
<line x1="253" y1="8.5" x2="343" y2="8.5" stroke="#DEDEDE"/>
<line y1="8.5" x2="90" y2="8.5" stroke="#DEDEDE"/>
</svg>

<svg xmlns="http://www.w3.org/2000/svg" width="343" height="18" fill="none"><path fill="#6B6B6B" d="M117.025 11.863v.774h-9.539v-.774h4.301v-2.39h.902v2.39zm-.914-6.668v.762h-3.398c.006 1.635 1.74 2.836 3.738 3.164l-.351.727c-1.67-.3-3.2-1.137-3.856-2.438-.662 1.3-2.191 2.139-3.867 2.438l-.363-.727c2.009-.328 3.756-1.53 3.761-3.164h-3.398v-.762h3.41V3.754h.902v1.441zm10.36-1.664V13.95h-.926V3.531zm-3.082 1.137c-.012 3-1.407 5.648-4.899 7.324l-.504-.75c2.819-1.336 4.254-3.334 4.465-5.824h-3.984v-.75zm11.343 1.664c0 1.84 1.219 3.727 2.696 4.453l-.563.738c-1.148-.603-2.109-1.834-2.566-3.28-.469 1.54-1.453 2.853-2.625 3.48l-.586-.739c1.523-.75 2.73-2.754 2.742-4.652V4.434h.902zm4.571-2.8v4.23h1.746v.797h-1.746v5.39h-.914V3.531zm11.801 5.156v.761h-9.493v-.761h2.356V7.223c-.832-.323-1.301-.856-1.301-1.559 0-1.23 1.406-1.934 3.691-1.934 2.262 0 3.68.704 3.68 1.934 0 .697-.463 1.23-1.289 1.547v1.476zm-4.747 1.558c2.239 0 3.575.645 3.586 1.84-.011 1.184-1.347 1.84-3.586 1.84-2.261 0-3.597-.656-3.597-1.84 0-1.195 1.336-1.84 3.597-1.84m0 .703c-1.675.012-2.671.422-2.66 1.137-.011.703.985 1.125 2.66 1.125 1.653 0 2.661-.422 2.661-1.125 0-.715-1.008-1.125-2.661-1.137m0-6.492c-1.699 0-2.753.457-2.742 1.207-.011.762 1.043 1.207 2.742 1.207 1.688 0 2.743-.445 2.743-1.207 0-.75-1.055-1.207-2.743-1.207m-1.476 4.23h2.953V7.47a8.7 8.7 0 0 1-1.477.117 8.7 8.7 0 0 1-1.476-.117zM155.51 6.73c-.012 1.676 1.195 3.516 2.707 4.23l-.528.727c-1.171-.568-2.162-1.81-2.625-3.222-.48 1.535-1.529 2.883-2.695 3.48l-.562-.726c1.5-.727 2.789-2.707 2.8-4.489V5.371h-2.425V4.61h5.672v.762h-2.344zm4.535-3.199V7.75h1.746v.785h-1.746v5.414h-.914V3.531zm10.371 0v4.242h1.688v.774h-1.688v5.402h-.914V3.531zm-2.695 1.125c0 2.953-1.383 5.637-4.782 7.313l-.515-.727c2.695-1.342 4.16-3.346 4.371-5.812h-3.891v-.774zm14.226 3.375v.762h-2.285v2.05a41 41 0 0 0 3.012-.222l.07.691c-2.308.34-4.828.376-6.82.376l-.129-.774c.908 0 1.916-.006 2.953-.035V8.793h-2.156V4.527h5.308v.75h-4.406v2.754zm2.332-4.5v10.442h-.914V3.53zm10.184 1.055v1.043c-.012 1.277-.012 2.707-.387 4.805l-.937-.106c.398-1.992.398-3.457.398-4.7v-.28h-6.422v-.762zm1.137 7.125v.762h-9.493v-.762h3.727V7.984h.902v3.727zm12.492-8.168v5.789h-.914V3.543zm-4.91 1.406c-.012 1.442 1.113 2.742 2.66 3.246l-.446.727c-1.23-.416-2.203-1.283-2.671-2.414a4.48 4.48 0 0 1-2.696 2.601l-.468-.726c1.57-.551 2.683-1.922 2.683-3.434V3.93h.938zm4.98 5.004v.75h-1.441v2.356h1.547v.75h-7.207v-.75h1.558v-2.356h-1.465v-.75zm-4.641 3.106h2.286v-2.356h-2.286zm14.403-9.528v4.125h1.746v.774h-1.746v5.543h-.914V3.53zm-2.742 1.02v.761h-3.95v5.274c1.887 0 3.223-.088 4.77-.375l.117.797c-1.629.293-3 .351-4.98.351h-.821V4.551zm10.324-.106v.926h2.437V3.543h.926v7.605h-.926V8.371h-2.437v.938h-4.781V4.445zm-3.867.762V8.57h2.965V5.207zm7.465 7.746v.774h-6.973v-3.258h.926v2.484zm-3.598-5.344h2.437V6.145h-2.437zm6.762 2.942c.011-1.57.492-2.051 1.3-2.543.481-.293.856-.762.856-1.418 0-.797-.621-1.3-1.395-1.3-.668 0-1.336.397-1.406 1.358h-1.066c.058-1.418 1.136-2.25 2.472-2.25 1.465 0 2.426.95 2.426 2.239 0 .914-.434 1.558-1.16 2.004-.727.445-.996.89-1.02 1.91v.058h-1.007zm.539 2.52a.75.75 0 0 1-.75-.762c-.012-.41.339-.75.75-.75a.755.755 0 0 1 0 1.511"/><path stroke="#DEDEDE" d="M253 8.5h90M0 8.5h90"/></svg>
